packages/components/icon/src/assets/icons/erp.svg

<svg width="24" height="24" viewBox="0 0 24 24" fill="none" xmlns="http://www.w3.org/2000/svg">
<path fill-rule="evenodd" clip-rule="evenodd" d="M19.4463 11.2242H4.91116C4.66529 11.2242 4.45196 11.1338 4.27118 10.953C4.09039 10.7722 4 10.5589 4 10.313V4.91116C4 4.66529 4.09039 4.45196 4.27118 4.27118C4.45196 4.09039 4.66529 4 4.91116 4H19.4463C19.6922 4 19.9055 4.09039 20.0863 4.27118C20.267 4.45196 20.3574 4.66529 20.3574 4.91116V10.313C20.3574 10.5589 20.267 10.7722 20.0863 10.953C19.9055 11.1338 19.6922 11.2242 19.4463 11.2242ZM7.62293 9.42355C8.11467 9.42355 8.5377 9.24277 8.89205 8.8812C9.24639 8.51963 9.42355 8.09298 9.42355 7.60124C9.42355 7.1095 9.24639 6.68647 8.89205 6.33213C8.5377 5.97779 8.11467 5.80062 7.62293 5.80062C7.1312 5.80062 6.70455 5.97779 6.34298 6.33213C5.9814 6.68647 5.80062 7.1095 5.80062 7.60124C5.80062 8.09298 5.9814 8.51963 6.34298 8.8812C6.70455 9.24277 7.1312 9.42355 7.62293 9.42355ZM19.4463 20.3574H4.91116C4.66529 20.3574 4.45196 20.267 4.27118 20.0863C4.09039 19.9055 4 19.6922 4 19.4463V14.0227C4 13.7769 4.09039 13.5672 4.27118 13.3936C4.45196 13.22 4.66529 13.1333 4.91116 13.1333H19.4463C19.6922 13.1333 19.9055 13.22 20.0863 13.3936C20.267 13.5672 20.3574 13.7769 20.3574 14.0227V19.4463C20.3574 19.6922 20.267 19.9055 20.0863 20.0863C19.9055 20.267 19.6922 20.3574 19.4463 20.3574ZM7.62293 18.5351C8.11467 18.5351 8.5377 18.358 8.89205 18.0036C9.24639 17.6493 9.42355 17.2262 9.42355 16.7345C9.42355 16.2428 9.24639 15.8197 8.89205 15.4654C8.5377 15.1111 8.11467 14.9339 7.62293 14.9339C7.11673 14.9339 6.68647 15.1111 6.33213 15.4654C5.97779 15.8197 5.80062 16.2428 5.80062 16.7345C5.80062 17.2262 5.97779 17.6493 6.33213 18.0036C6.68647 18.358 7.11673 18.5351 7.62293 18.5351Z" fill="currentColor"/>
</svg>

<svg viewBox="0 0 24 24" fill="none" xmlns="http://www.w3.org/2000/svg"><path fill-rule="evenodd" clip-rule="evenodd" d="M19.446 11.224H4.911a.875.875 0 0 1-.64-.271.875.875 0 0 1-.271-.64V4.911c0-.246.09-.459.271-.64A.875.875 0 0 1 4.911 4h14.535c.246 0 .46.09.64.271a.874.874 0 0 1 .271.64v5.402c0 .246-.09.46-.27.64a.875.875 0 0 1-.64.271Zm-11.823-1.8c.492 0 .915-.181 1.269-.543.354-.361.532-.788.532-1.28s-.178-.915-.532-1.269a1.732 1.732 0 0 0-1.27-.531c-.49 0-.917.177-1.279.531a1.715 1.715 0 0 0-.542 1.27c0 .491.18.918.542 1.28a1.75 1.75 0 0 0 1.28.542Zm11.823 10.933H4.911a.876.876 0 0 1-.64-.27.875.875 0 0 1-.271-.64v-5.424a.84.84 0 0 1 .271-.63.893.893 0 0 1 .64-.26h14.535c.246 0 .46.087.64.26a.84.84 0 0 1 .271.63v5.423c0 .246-.09.46-.27.64a.876.876 0 0 1-.64.271ZM7.623 18.535c.492 0 .915-.177 1.269-.531.354-.355.532-.778.532-1.27 0-.491-.178-.914-.532-1.269a1.732 1.732 0 0 0-1.27-.531c-.505 0-.936.177-1.29.531a1.732 1.732 0 0 0-.531 1.27c0 .491.177.914.531 1.269.354.354.785.531 1.29.531Z" fill="currentColor"/></svg>
